X:1
T:There’s Light for a Step
T:John Sylvester Fearis
T:There’s Light for a Step
T:Public Domain
T:Public Domain
C:John Sylvester Fearis
Z:Public Domain
%%score ( 1 2 ) ( 3 4 )
L:1/8
M:6/8
K:F
V:1 treble 
V:2 treble 
V:3 bass 
V:4 bass 
V:1
 F | [FA][FA][FA] [FA][F^G][FA] | [Fc][Fd][Fc] F2 F | [EG][EG][EG] [EG][FA][GB] | [FA]3- [FA]2 F | %5
w: 1.~Though|dows may co- ver the face|of the day, Though steep|path that you climb, You ne-|ver * need|
w: 2.~Though|on the edge of the marsh-|lands lie low, Though nar-|path that is sure; Still light|for * a|
w: 3.~When|to the val- ley the path-|way shall lead, Where dark-|Death- Ri- ver rolls, There still|shall * be|
 [FA][FA][FA] [FA][F^G][FA] | [Fc][Fd][Fc] F2 [FG] | [FA]>[CG][CF] [CG]>[CF][CE] | [CF]3- [CF]2 || %9
w: ble, you ne- ver need stray,|There’s light for a step|a time. * * * *||
w: will be yours if you go|With tread that is firm|se- cure. There’s light for each|step *|
w: in your ut- ter- most need,|To guide to the man-|of souls. * * * *||
"^Refrain" [FA] | [Ac]4 [GB][FA] | [Fd][Fd][Fd] [Fc]2 [Fc] | [Fd]>[Fd][Fd] [Ff]>[Fe][Fd] | %13
w: ||||
w: of|the way, There’s|light for a step at|a time; You ne- ver need|
w: ||||
 [Fc]3- [Fc]2 [EB] | [FA][FA][FA] [EB][EB][EB] | [Fc][Ff][Fc] [Fd]2 [Fd] | %16
w: |||
w: stum- * ble,|you ne- ver need stray, There’s|light for a step at|
w: |||
 [Fc]>[FA][CF] [CG]>[CF][CE] | [CF]3- [CF]2 |] %18
w: ||
w: a time. * * * *||
w: ||
V:2
 F | x6 | x3 F2 F | x6 | x5 F | x6 | x3 F2 x | x6 | x5 || x | x6 | x6 | x6 | x6 | x6 | x6 | x6 | %17
w: sha-||be the||stum-||at|||||||||||
w: mists||row the||step||and|||||||||||
w: in-||ly the||light||sion|||||||||||
 x5 |] %18
w: |
w: |
w: |
V:3
 [F,A,] | [F,C][F,C][F,C] [F,C][F,=B,][F,C] | [F,A,][F,B,][F,A,] [D,A,]2 [D,A,] | %3
w: ~|~ ~ ~ ~ ~ ~|~ ~ ~ ~ ~|
 [C,C][C,C][C,C] [C,C][C,C][C,C] | [F,C]3- [F,C]2 [F,A,] | [F,C][F,C][F,C] [F,C][F,=B,][F,C] | %6
w: ~ ~ ~ ~ ~ ~|~ * ~|~ ~ ~ ~ ~ ~|
 [F,A,][F,B,][F,A,] [D,A,]2 [B,,D] | [C,C]>[C,B,][C,A,] [C,B,]>[C,A,][C,G,] | [F,A,]3- [F,A,]2 || %9
w: ~ ~ ~ ~ ~|~ ~ ~ ~ ~ ~|~ *|
 z | z2 [F,C] [F,F][F,C][F,C] | B,B,B, [A,C]2 [F,A,] | %12
w: |There’s light for each|step of the way, *|
 [B,,B,]>[B,,B,][B,,B,] [B,,D]>[B,,C][B,,B,] | [F,A,]3- [F,A,]2 [C,C] | %14
w: ||
 [F,C][F,C][F,C] [G,C][G,C][G,C] | [A,C][A,C][A,C] B,2 [B,,B,] | %16
w: ||
 [C,A,]>[C,C][C,A,] [C,B,]>[C,A,][C,G,] | [F,A,]3- [F,A,]2 |] %18
w: ||
V:4
 x | x6 | x6 | x6 | x6 | x6 | x6 | x6 | x5 || x | x6 | B,B,B, x3 | x6 | x6 | x6 | x3 B,2 x | x6 | %17
 x5 |] %18

